static/assets/svg/human/humanClothes/pants2_stickers/pants2_sticker10.svg

<svg class="bottomOverlay" width="86" height="380" viewBox="202.715 584.407 86.593 380.048" xmlns="http://www.w3.org/2000/svg" xmlns:xlink="http://www.w3.org/1999/xlink"><defs><pattern id="c" width="20" height="20" patternUnits="userSpaceOnUse" viewBox="0 0 100 100"><path fill="#fffefe" d="M-.962-.641h105.929V100.16H-.962z"/><g fill-rule="evenodd"><path stroke-width="1pt" fill="#dc0000" d="M.198 93.476h209.82v46.54H.198z" transform="matrix(.4979 0 0 .74502 -2.481 -3.084)"/><path stroke-width="1pt" fill="#ffcb00" d="M.198.397h209.82v46.54H.198z" transform="matrix(.4979 0 0 .74502 -2.481 -3.084)"/><path stroke-width="1pt" fill="#0000ba" d="M.198 46.936h209.82v46.54H.198z" transform="matrix(.4979 0 0 .74502 -2.481 -3.084)"/><g stroke-width=".113" fill="#fff"><path d="M266.19 534.45l-10.41-7.43-10.36 7.5 3.85-12.19-10.33-7.53 12.78-.11 3.97-12.16 4.05 12.13 12.79.02-10.28 7.6 3.94 12.17z" transform="matrix(.1789 0 0 .24209 4.154 -85.706)"/><path d="M266.19 534.45l-10.41-7.43-10.36 7.5 3.85-12.19-10.33-7.53 12.78-.11 3.97-12.16 4.05 12.13 12.79.02-10.28 7.6 3.94 12.17z" transform="matrix(.1789 0 0 .24209 13.42 -84.164)"/><path d="M266.19 534.45l-10.41-7.43-10.36 7.5 3.85-12.19-10.33-7.53 12.78-.11 3.97-12.16 4.05 12.13 12.79.02-10.28 7.6 3.94 12.17z" transform="matrix(.1789 0 0 .24209 21.452 -77.384)"/><path d="M266.19 534.45l-10.41-7.43-10.36 7.5 3.85-12.19-10.33-7.53 12.78-.11 3.97-12.16 4.05 12.13 12.79.02-10.28 7.6 3.94 12.17z" transform="matrix(.1789 0 0 .24209 25.982 -67.218)"/><path d="M266.19 534.45l-10.41-7.43-10.36 7.5 3.85-12.19-10.33-7.53 12.78-.11 3.97-12.16 4.05 12.13 12.79.02-10.28 7.6 3.94 12.17z" transform="matrix(-.1789 0 0 .24209 86.393 -84.164)"/><path d="M266.19 534.45l-10.41-7.43-10.36 7.5 3.85-12.19-10.33-7.53 12.78-.11 3.97-12.16 4.05 12.13 12.79.02-10.28 7.6 3.94 12.17z" transform="matrix(-.1789 0 0 .24209 78.362 -77.384)"/><path d="M266.19 534.45l-10.41-7.43-10.36 7.5 3.85-12.19-10.33-7.53 12.78-.11 3.97-12.16 4.05 12.13 12.79.02-10.28 7.6 3.94 12.17z" transform="matrix(-.1789 0 0 .24209 73.831 -67.218)"/></g></g></pattern><pattern id="d" patternTransform="matrix(5.90286 0 0 3.13168 232.775 849.914)" xlink:href="#c"/><linearGradient id="a" y2="104.74" gradientUnits="userSpaceOnUse" x2="229.41" gradientTransform="translate(0 .854)" y1="109.05" x1="-10.353"><stop offset="0" stop-color="#000098"/><stop offset=".5" stop-color="#0044d8"/><stop offset="1" stop-color="#0000c0"/></linearGradient><linearGradient id="b" y2="43.606" gradientUnits="userSpaceOnUse" x2="96.841" y1="43.755" x1="-4.508"><stop offset="0" stop-color="#a2a2a2"/><stop offset=".449" stop-color="#fff"/><stop offset="1" stop-color="#9f9f9f"/></linearGradient></defs><path d="M211.308 791.108c0 13.239-9.514 33.939-9.514 48.134 0 7.842 1.465 14.882 1.465 22.271 0 13.668 2.194 27.415 2.194 40.95 0 4.991-2.194 9.395-2.194 12.932 0 4.874.731 9.003.731 12.213.974.719 4.26 5.818 4.26 6.036 2.234.718 2.327-2.343 2.327-6.036 3.378-.718 8.349-4.311 14.635-4.311 2.407-1.643 7.139-.718 9.514-.718 0-16.229 5.855-33.727 5.855-51.008 0-7.517 2.195-13.111 2.195-18.679v-15.087-9.339c0 3.363.732 5.975.732 8.621V849.3c0 3.665-1.464 7.814-1.464 9.339v24.427c0 5.333 2.927 8.711 2.927 12.931 0 3.161.732 5.944.732 8.621 0 5.083.732 8.651.732 12.932 0 3.081 7.174 2.874 9.512 2.874 2.066 0 6.205.343 7.318 1.437 3.415 0 14.726 2.588 17.409 2.588.731-4.006-1.31-14.345-1.31-19.112 4.235-9.032-.731-18.392-.731-25.864 0-8.861 2.195-15.099 2.195-22.989 0-3.007 2.219-20.835 2.927-20.835v-12.212c0-4.705-1.463-9.242-1.463-14.369 0-3.029-1.464-3.53-1.464-6.466-.732-1.376-2.195-4.484-2.195-7.184-.733-3.189-2.196-2.823-2.196-5.029-4.316 0-7.31-2.874-7.317-2.874h-9.514c-4.688 0-7.584-.718-10.977-.718-2.348 1.588-7.215.718-9.512.718h-5.855c-4.95 4.141-6.98.719-9.513.719-3.368-.719-4.078-2.156-7.318-2.156-2.708 0-4.39 2.467-4.39 4.311l-.733.719z" class="clothes" stroke="#000" fill="url(#d)"/></svg>

<svg class="bottomOverlay" width="86" height="380" viewBox="202.715 584.407 86.5933 380.048" preserveAspectRatio="xMidYMid meet" xmlns="http://www.w3.org/2000/svg" xmlns:xlink="http://www.w3.org/1999/xlink">
  <defs id="svgEditorDefs">
    <path id="svgEditorClosePathDefs" fill="moccasin" style="stroke-width: 0px; stroke: none; fill-opacity: 1;" class="clothes"/>
    <pattern id="pattern-0" x="0" y="0" width="20" height="20" patternUnits="userSpaceOnUse" viewBox="0 0 100 100">
      <rect x="-0.962" y="-0.641" width="105.929" height="100.801" style="fill: rgb(255, 254, 254);"/>
      <g transform="matrix(0.497893, 0, 0, 0.74502, -2.4814, -3.084351)">
        <rect id="rect171" style="fill-rule:evenodd;stroke-width:1pt;fill:#dc0000" height="46.54" width="209.82" y="93.476" x=".19832"/>
        <rect id="rect256" style="stroke-width:1pt;fill:#ffcb00;fill-rule:evenodd" height="46.54" width="209.82" y=".39668" x=".19832"/>
        <rect id="rect255" style="fill-rule:evenodd;stroke-width:1pt;fill:#0000ba" height="46.54" width="209.82" y="46.936" x=".19832"/>
        <g id="g595" transform="translate(.22163 .73177)">
          <path id="path575" style="fill-rule:evenodd;stroke-width:.11287;fill:#ffffff" d="m266.19 534.45l-10.41-7.43-10.36 7.5 3.85-12.19-10.33-7.53 12.78-0.11 3.97-12.16 4.05 12.13 12.79 0.02-10.28 7.6 3.94 12.17z" transform="matrix(.35933 0 0 .32494 13.106 -111.63)"/>
          <path id="path576" style="fill-rule:evenodd;stroke-width:.11287;fill:#ffffff" d="m266.19 534.45l-10.41-7.43-10.36 7.5 3.85-12.19-10.33-7.53 12.78-0.11 3.97-12.16 4.05 12.13 12.79 0.02-10.28 7.6 3.94 12.17z" transform="matrix(.35933 0 0 .32494 31.717 -109.56)"/>
          <path id="path577" style="fill-rule:evenodd;stroke-width:.11287;fill:#ffffff" d="m266.19 534.45l-10.41-7.43-10.36 7.5 3.85-12.19-10.33-7.53 12.78-0.11 3.97-12.16 4.05 12.13 12.79 0.02-10.28 7.6 3.94 12.17z" transform="matrix(.35933 0 0 .32494 47.847 -100.46)"/>
          <path id="path578" style="fill-rule:evenodd;stroke-width:.11287;fill:#ffffff" d="m266.19 534.45l-10.41-7.43-10.36 7.5 3.85-12.19-10.33-7.53 12.78-0.11 3.97-12.16 4.05 12.13 12.79 0.02-10.28 7.6 3.94 12.17z" transform="matrix(.35933 0 0 .32494 56.946 -86.815)"/>
          <path id="path579" style="fill-rule:evenodd;stroke-width:.11287;fill:#ffffff" d="m266.19 534.45l-10.41-7.43-10.36 7.5 3.85-12.19-10.33-7.53 12.78-0.11 3.97-12.16 4.05 12.13 12.79 0.02-10.28 7.6 3.94 12.17z" transform="matrix(-.35933 0 0 .32494 178.28 -109.56)"/>
          <path id="path580" style="fill-rule:evenodd;stroke-width:.11287;fill:#ffffff" d="m266.19 534.45l-10.41-7.43-10.36 7.5 3.85-12.19-10.33-7.53 12.78-0.11 3.97-12.16 4.05 12.13 12.79 0.02-10.28 7.6 3.94 12.17z" transform="matrix(-.35933 0 0 .32494 162.15 -100.46)"/>
          <path id="path581" style="fill-rule:evenodd;stroke-width:.11287;fill:#ffffff" d="m266.19 534.45l-10.41-7.43-10.36 7.5 3.85-12.19-10.33-7.53 12.78-0.11 3.97-12.16 4.05 12.13 12.79 0.02-10.28 7.6 3.94 12.17z" transform="matrix(-.35933 0 0 .32494 153.05 -86.815)"/>
        </g>
      </g>
    </pattern>
    <pattern id="pattern-1" viewBox="0 0 100 100" patternUnits="userSpaceOnUse" preserveAspectRatio="none" width="100" height="100">
      <g id="g4947" transform="matrix(0.566424, 0, 0, 0.676714, -12.616541, -14.343151)">
        <path id="path4951" d="m2.5958 177.14c40.025 9.7687 96.547 11.765 139.52 0.67424 34.733-6.577 62.288-8.1343 87.307-6.5362l0.29-168.41c-40.49-2.7972-42.06-0.1479-89.55 6.4917-49.986 10.445-95.287 5.2723-140.17-1.2979z" style="fill:url(#linearGradient4963)"/>
      </g>
      <g id="g4973" transform="matrix(0.566424, 0, 0, 0.676714, -12.616541, -14.343151)">
        <path id="path4979" style="fill:url(#linearGradient4983)" d="m72.775 99.745-33.389-18.882-34.484 16.801 7.64-37.59-26.634-27.603 38.111-4.351 18.022-33.86 15.914 34.901 37.773 6.676-28.276 25.921z" transform="matrix(.99969 -.024698 .024698 .99969 71.214 47.164)"/>
      </g>
    </pattern>
    <pattern id="pattern-0-0" patternTransform="matrix(5.902863, 0, 0, 3.13168, 232.774506, 849.913574)" xlink:href="#pattern-0"/>
    <symbol id="symbol-0" viewBox="0 0 100 100"/>
    <linearGradient id="linearGradient4963" y2="104.74" gradientUnits="userSpaceOnUse" x2="229.41" gradientTransform="translate(0 .85421)" y1="109.05" x1="-10.353">
      <stop id="stop4965" style="stop-color:#000098" offset="0"/>
      <stop id="stop9555" style="stop-color:#0044d8" offset="0.5"/>
      <stop id="stop4961" style="stop-color:#0000c0" offset="1"/>
    </linearGradient>
    <linearGradient id="linearGradient4983" y2="43.606" gradientUnits="userSpaceOnUse" x2="96.841" y1="43.755" x1="-4.508">
      <stop id="stop4933" style="stop-color:#a2a2a2" offset="0"/>
      <stop id="stop9559" style="stop-color:#ffffff" offset="0.4492"/>
      <stop id="stop4929" style="stop-color:#9f9f9f" offset="1"/>
    </linearGradient>
  </defs>
  <path d="M 211.308 791.108 C 211.308 804.347 201.794 825.047 201.794 839.242 C 201.794 847.084 203.259 854.124 203.259 861.513 C 203.259 875.181 205.453 888.928 205.453 902.463 C 205.453 907.454 203.259 911.858 203.259 915.395 C 203.259 920.269 203.99 924.398 203.99 927.608 C 204.964 928.327 208.25 933.426 208.25 933.644 C 210.484 934.362 210.577 931.301 210.577 927.608 C 213.955 926.89 218.926 923.297 225.212 923.297 C 227.619 921.654 232.351 922.579 234.726 922.579 C 234.726 906.35 240.581 888.852 240.581 871.571 C 240.581 864.054 242.776 858.46 242.776 852.892 C 242.776 847.384 242.776 842.594 242.776 837.805 C 242.776 834.213 242.776 831.339 242.776 828.466 C 242.776 831.829 243.508 834.441 243.508 837.087 C 243.508 841.637 243.508 845.468 243.508 849.3 C 243.508 852.965 242.044 857.114 242.044 858.639 C 242.044 862.711 242.044 866.063 242.044 869.416 C 242.044 874.445 242.044 878.756 242.044 883.066 C 242.044 888.399 244.971 891.777 244.971 895.997 C 244.971 899.158 245.703 901.941 245.703 904.618 C 245.703 909.701 246.435 913.269 246.435 917.55 C 246.435 920.631 253.609 920.424 255.947 920.424 C 258.013 920.424 262.152 920.767 263.265 921.861 C 266.68 921.861 277.991 924.449 280.674 924.449 C 281.405 920.443 279.364 910.104 279.364 905.337 C 283.599 896.305 278.633 886.945 278.633 879.473 C 278.633 870.612 280.828 864.374 280.828 856.484 C 280.828 853.477 283.047 835.649 283.755 835.649 C 283.755 830.534 283.755 827.765 283.755 823.437 C 283.755 818.732 282.292 814.195 282.292 809.068 C 282.292 806.039 280.828 805.538 280.828 802.602 C 280.096 801.226 278.633 798.118 278.633 795.418 C 277.9 792.229 276.437 792.595 276.437 790.389 C 272.121 790.389 269.127 787.515 269.12 787.515 C 265.461 787.515 262.534 787.515 259.606 787.515 C 254.918 787.515 252.022 786.797 248.629 786.797 C 246.281 788.385 241.414 787.515 239.117 787.515 C 236.677 787.515 234.969 787.515 233.262 787.515 C 228.312 791.656 226.282 788.234 223.749 788.234 C 220.381 787.515 219.671 786.078 216.431 786.078 C 213.723 786.078 212.041 788.545 212.041 790.389 L 211.308 791.108 Z" style="stroke: black; fill: url(#pattern-0-0);" class="clothes"/>
</svg>
